X: 59
M: C|
L: 1/8
K: D
g |\
f<aa>d f>da>d | g<bb>e g>eb>e |\
f<aa>d f>da>d | g>bf>a Te2d>g |
f<aa>d f>da>d | g<bb>e g>eb>e |\
f<ae>f d>eB>d | A>d F>d E2 D H|]

